X: 39
T:Clumsy Lover, The (jig)
M:6/8
L:1/8
C:Neil Dickie
S:De Dannan
R:jig
Z:Barney
K:A
cec ecA|dff =gfe|cec ecA|dBc dcB|
cec ece|dff =gfe|cec dB^G|BA^G A2B:||
cee aec|dff afd|cee aec|dBc dcB|
cee aec|dff =gfe|cec dB^G|BA^G A2B:||
cac aca|dad ada|cac aca|B2c dcB|
cac aca|dad ada|cec dB^G|BA^G A2B:||
